contents/images/courses/1_5/automl.svg

<svg height="116" viewBox="0 0 128 116" width="128" xmlns="http://www.w3.org/2000/svg"><g fill="none"><path d="m126.47 52.12-26.3-45.74c-2.0124394-3.56880604-5.7635648-5.80578554-9.86-5.88h-52.61c-4.0970111.07219478-7.8490638 2.30972722-9.86 5.88l-26.31 45.62c-2.0353442 3.5417451-2.0353442 7.8982549 0 11.44l26.3 46c1.9903239 3.619541 5.7323947 5.93082 9.86 6.09h52.61c4.1273864-.141675 7.8761765-2.443364 9.87-6.06l26.3-45.74c2.049489-3.5986561 2.049489-8.0113439 0-11.61z" fill="#4285f4"/><path d="m38.64 0-.86 8-4.23 3.6-11.55-11.6-21.91 32.2.07 7.8 9.9 9.9-.7 6.1 29.51 29.5h11.43c4.1273864-.141675 7.8761765-2.4433637 9.87-6.06l21.14-36.77z" fill="#000" opacity=".07" transform="translate(40 30)"/><g fill="#fff" transform="translate(33 30)"><path d="m45.34 13.34 3.85-6.67-3.85-6.67h-8.34l3.85 6.67-3.85 6.67z"/><path d="m29.3 0h-13.69l-15.61 27.03 7.51 13 15.4-26.69h6.39l3.85-6.67z"/><path d="m16.85 43-3.85 6.67 3.85 6.68h8.34l-3.85-6.68 3.85-6.67z"/><path d="m54.64 16-15.4 26.69h-6.39l-3.85 6.67 3.85 6.68h13.7l15.6-27.04z"/></g></g></svg>

<?xml version="1.0" encoding="UTF-8"?>
<svg width="128px" height="116px" viewBox="0 0 128 116" version="1.1" xmlns="http://www.w3.org/2000/svg" xmlns:xlink="http://www.w3.org/1999/xlink">
    <!-- Generator: Sketch 48.2 (47327) - http://www.bohemiancoding.com/sketch -->
    <title>Auto_ML_Hex 128px@3x</title>
    <desc>Created with Sketch.</desc>
    <defs></defs>
    <g id="Page-1" stroke="none" stroke-width="1" fill="none" fill-rule="evenodd">
        <g id="Auto_ML_Hex-128px" fill-rule="nonzero">
            <g id="BASE" fill="#4285F4">
                <path d="M126.47,52.12 L100.17,6.38 C98.1575606,2.81119396 94.4064352,0.574214465 90.31,0.5 L37.7,0.5 C33.6029889,0.572194784 29.8509362,2.80972722 27.84,6.38 L1.53,52 C-0.505344201,55.5417451 -0.505344201,59.8982549 1.53,63.44 L27.83,109.44 C29.8203239,113.059541 33.5623947,115.37082 37.69,115.53 L90.3,115.53 C94.4273864,115.388325 98.1761765,113.086636 100.17,109.47 L126.47,63.73 C128.519489,60.1313439 128.519489,55.7186561 126.47,52.12 Z" id="Shape"></path>
            </g>
            <g id="shadow" transform="translate(40.000000, 30.000000)" fill="#000000" opacity="0.07">
                <path d="M38.64,0 L37.78,8 L33.55,11.6 L22,0 L0.09,32.2 L0.16,40 L10.06,49.9 L9.36,56 L38.87,85.5 L50.3,85.5 C54.4273864,85.358325 58.1761765,83.0566363 60.17,79.44 L81.31,42.67 L38.64,0 Z" id="Shape"></path>
            </g>
            <g id="art" transform="translate(33.000000, 30.000000)" fill="#FFFFFF">
                <polygon id="Shape" points="45.34 13.34 49.19 6.67 45.34 0 37 0 40.85 6.67 37 13.34"></polygon>
                <polygon id="Shape" points="29.3 0 15.61 0 0 27.03 7.51 40.03 22.91 13.34 29.3 13.34 33.15 6.67"></polygon>
                <polygon id="Shape" points="16.85 43 13 49.67 16.85 56.35 25.19 56.35 21.34 49.67 25.19 43"></polygon>
                <polygon id="Shape" points="54.64 16 39.24 42.69 32.85 42.69 29 49.36 32.85 56.04 46.55 56.04 62.15 29"></polygon>
            </g>
        </g>
    </g>
</svg>
